X: 36197
T: Scottish Soffan
R: barndance
M: 4/4
K: Amajor
E2|A3B cdcB|AGAc EAGE|F2DF A2GF|GFGA B2GE|
A3B cdcB|AGAc EAGE|F2DF A2GF|GABG A2:|
|:GA|B2E2 B2E2|AGAB AGE2|F2A cAGA|EBGB EBGA|
B2E2 B2E2|AGAB AGE2|dcde dcBA|cBAG A2:|

